icons/fill-new-food-tableware.svg

<svg xmlns="http://www.w3.org/2000/svg" width="32px" height="32px" viewBox="0 0 32 32" version="1.1">
    <title>fill-new-food-tableware</title>
    <g id="fill-new-food-tableware" stroke-width="1" fill-rule="evenodd">
        <path d="M9,26 L23,26 L23,27 C23,28.1045695 22.1045695,29 21,29 L11,29 C9.8954305,29 9,28.1045695 9,27 L9,26 Z M29,13 C29,17.6319165 26.5775553,21.6980407 22.9304676,24.0005709 L9.06953242,24.0005709 C5.42244471,21.6980407 3,17.6319165 3,13 L29,13 Z M21.7071068,3.29289322 C22.0976311,3.68341751 22.0976311,4.31658249 21.7071068,4.70710678 L15.414,11 L12.585,11 L20.2928932,3.29289322 C20.6834175,2.90236893 21.3165825,2.90236893 21.7071068,3.29289322 Z M26.8602915,6.49019761 C27.1418476,6.9653235 26.9849283,7.57873545 26.5098024,7.86029153 L21.21,11 L17.287,11 L25.4901976,6.13970847 C25.9653235,5.85815238 26.5787354,6.01507172 26.8602915,6.49019761 Z" id="&#24418;&#29366;" />
    </g>
</svg>

<svg xmlns="http://www.w3.org/2000/svg" viewBox="0 0 32 32"><path fill="currentColor" d="M9 26h14v1a2 2 0 0 1-2 2H11a2 2 0 0 1-2-2zm20-13a12.99 12.99 0 0 1-6.07 11H9.07A12.99 12.99 0 0 1 3 13zm-7.293-9.707a1 1 0 0 1 0 1.414L15.414 11h-2.829l7.708-7.707a1 1 0 0 1 1.414 0M26.86 6.49a1 1 0 0 1-.35 1.37L21.21 11h-3.923l8.203-4.86a1 1 0 0 1 1.37.35"/></svg>
